!!!!SEGMENT: pl-kk--i-545--008_anonim--czesc-bogu-na-niebie-i-chwala-na-ziemi.krn
!!!cenid: 18xx:4485
!!!COM: Anonim
!!!COM-rismID: pe30004985
!!!CDT:
!!!CNT:
!!!OTL: Cześć Bogu na niebie i chwała na ziemi
!!!PDT:
!!!AGN: Sacred
!!!YEC: Copyright 2022 Narodowy Instytut Fryderyka Chopina (https://polishscores.org)
!!!YEM: License CC-BY-4.0 (https://creativecommons.org/licenses/by/4.0)
!!!SMS-siglum: PL-Kk
!!!SMS-shelfmark: I.545
!!!SMS-variant:
!!!SMS-altvar:
!!!SMS-shelfwork: 008 W
!!!NIFC-rismSourceID: 1001210831
!!!NIFC-rismChildID: 1001210843
!!!NIFC-islandoraID: pl-kk:17058
!!!URL-pdf-islandora: https://repozytorium.nifc.pl/islandora/object/pl-kk%3A17058/datastream/PDF/view
!!!URL-scan: https://polish.musicsources.pl/pl/lokalizacje/galeria/rekopisy/7172/7 @EN{Scan on Polish Music Sources Website} @PL{Skany w portalu Dziedzictwo Muzyki Polskiej w otwartym dostępie}
!!!IIIF:
!!!ONB-nifc: UWAGA: 6r.
!!!AIN: 1 alto 1 bass 1 soprn 1 tenor
!!!key: a
**kern	**dynam	**kern	**text	**dynam
*part2	*part2	*part1	*part1	*part1
*staff2	*	*staff1	*staff1	*
*ICvox	*	*ICvox	*	*
*Itenor&Ibass	*	*Isoprn&Ialto	*	*
*I"[Voci]	*	*I"[Voci]	*	*
*clefF4	*	*clefG2	*	*
*k[]	*	*k[]	*	*
*a:	*	*a:	*	*
*M4/4	*	*M4/4	*	*
*met(c)	*	*met(c)	*	*
*^	*	*^	*	*
!	!	!LO:DY:a:rj	!	!	!	!LO:DY:a:rj
4G/	4C\	mf	4ee/	4cc\	Cześć	mf
=1	=1	=1	=1	=1	=1	=1
2G/	2C\	.	2ee/	2cc\	Bo-	.
4G/	4C\	.	4ee/	4cc\	-gu	.
8A/L	4C\	.	(8ff/L	4cc\	na	.
8G/J	.	.	8ee/J)	.	.	.
=2	=2	=2	=2	=2	=2	=2
4G/	2GG\	.	(4ee/	2b\	nie-	.
4F/	.	.	4dd/)	.	.	.
4F/	4GG\	.	4dd/	4b\	-bie	.
4F/	4GG\	.	4dd/	4b\	i	.
=3	=3	=3	=3	=3	=3	=3
2F/	2GG#X\	.	2dd/	2b\	chwa-	.
4D/	4GG#\	.	4ff/	4b\	-ła	.
4E/	4GG#\	.	8ee/L	4b\	na	.
.	.	.	8dd/J	.	.	.
=4	=4	=4	=4	=4	=4	=4
2E/	2AA\	.	(4dd/	(4b\	zie-	.
.	.	.	4cc/)	4a\)	.	.
4E/	4AA\	.	8cc/	8a\	-mi	.
!	!	!	!LO:N:vis=2	!	!	!
.	.	.	4r	4ryy	.	.
!LO:N:vis=2	!	!	!	!	!	!
8r	8ryy	.	.	.	.	.
8E/	8AA\	.	8cc/	8a\	Kro-	.
=5	=5	=5	=5	=5	=5	=5
4F/	4D\	.	4b/	4a\	-les-	.
4E/	4E\	.	4b/	4g#X\	-two	.
2E\	2ryy	.	(8ee/L	4g#\	bądź	.
.	.	.	8dd/J	.	.	.
.	.	.	8cc/L	4g#\	.	.
.	.	.	8b/J)	.	.	.
!!LO:LB:g=original
=6	=6	=6	=6	=6	=6	=6
2F/	2F\	.	(4.a/	2a\	Two-	.
.	.	.	8aa/)	.	.	.
2F/	2F\	.	2aa/	2cc\	-je	.
=7	=7	=7	=7	=7	=7	=7
4A/	4F\	.	4dd/	4cc\	wo-	.
4A 4F/	4ryy	.	4dd/	4b\	-la	.
4G#X/	4E\	.	(8ee/L	4b\	Two-	.
.	.	.	8dd/J)	.	.	.
4E/	4E\	.	(8cc/L	4g#X\	-ja	.
.	.	.	8b/J)	.	.	.
=8	=8	=8	=8	=8	=8	=8
4E/	4AA\	.	4cc/	4a\	bądź	.
4r	2.ryy	.	4r	2.ryy	.	.
2r	.	.	2r	.	.	.
=9	=9	=9	=9	=9	=9	=9
4G/	4C\	.	4ee/	4cc\	Za-	.
4G/	4C\	.	4ee/	4cc\	-wsze	.
4G/	4C\	.	4ee/	4cc\	nam	.
8A/L	4C\	.	8ff/L	4cc\	w po-	.
8G/J	.	.	8ee/J	.	.	.
=10	=10	=10	=10	=10	=10	=10
4G/	2GG\	.	(4ee/	2b\	-trze-	.
4F/	.	.	4dd/)	.	.	.
2F/	2GG\	.	2dd/	2b\	-bie	.
!!LO:LB:g=original
=11	=11	=11	=11	=11	=11	=11
4F/	4GG#X\	.	4dd/	4b\	nad	.
4F/	4BB\	.	4dd/	4f#X\	lu-	.
4D/	4BB\	.	4ff/	4g#X\	-da-	.
8E/L	4BB\	.	(8ee/L	4g#\	-mi	.
8F/J	.	.	8dd/J)	.	.	.
=12	=12	=12	=12	=12	=12	=12
(4F/	2AA\	.	(4dd/	2a\	Twe-	.
4E/)	.	.	4cc/)	.	.	.
2E/	2AA\	.	2cc/	2a\	-mi	.
=13	=13	=13	=13	=13	=13	=13
4F/	4D\	.	4b/	4a\	Czu-	.
4E/	4E\	.	4b/	4g#X\	-wać	.
4G#/	4E\	.	(8ee/L	4b\	Pa-	.
.	.	.	8dd/J)	.	.	.
4E/	4E\	.	(8cc/L	4g#\	-nie	.
.	.	.	8b/J)	.	.	.
=14	=14	=14	=14	=14	=14	=14
2F/	2F\	.	(4.a/	2a\	chciej	.
.	.	.	8aa/)	.	.	.
2F/	2F\	.	2aa 2cc\	2ryy	.	.
!!LO:LB:g=original
=15	=15	=15	=15	=15	=15	=15
4A/	4F\	.	4dd/	4cc\	i	.
4A/	4F\	.	4dd/	4b\	sam	.
4G#X/	4E\	.	(8ee/L	4b\	nie-	.
.	.	.	8dd/J)	.	.	.
8E/L	4EE\	.	8cc/L	4g#X\	-mi	.
8D/J	.	.	8b/J	.	.	.
=16	=16	=16	=16	=16	=16	=16
4C/	4AA\	.	4a/	4a\	rządź	.
4r	2ryy	.	4r	2ryy	.	.
4r	.	.	4r	.	.	.
4A/	4A\	.	4a/	4a\	i	.
=17	=17	=17	=17	=17	=17	=17
!LO:SIC:v:s=2A/	!LO:SIC:v:s=2A\	!	!	!	!	!
2G/	2G\	.	2a/	2a\	sam	.
4A/	4A\	.	4a/	4a\	nie-	.
4A/	4A\	.	4a/	4a\	-mi	.
*	*	*	*v	*v	*	*
=18	=18	=18	=18	=18	=18
1A	1AA;	.	1ee 1cc;	rządź	.
*v	*v	*	*	*	*
==	==	==	==	==
*-	*-	*-	*-	*-
!!!system-decoration: (s1,s2)
!!!RDF**kern: i = editorial accidental
!!!RDF**kern: > = above
!!!RDF**kern: < = below
!!!RDF**kern: N = linked
!!!RDF**dynam: > = "dim.", fontstyle= "italic"
!!!RDF**kern: @ = marked note, color=red
!!!ENC: Filip Voros
!!!EED: Katarzyna Serwa
!!!END: 2023-10-27
!!!EEV: 2024-04-21
